X: 6
T: Donald Blue
R: reel
M: 4/4
L: 1/8
K: Dmaj
|:dBAF A2 FA|dBAF E2 DF|dBAF A2 FA|ABBA B2 AB|dBAF A2 FA|dBAF E2 DF|dBAF A2 FA|ABBA B2 dB|||:ABde fa a2|g2 fg ed (3Bcd|ABde f2 ed|ABBA B2 dB|ABde fa a2|g2 fg ed (3Bcd|ABde f2 ed|ABBA B2 AB||


Tune 1175	Setting 14444

